dist/svgs/team-graph.svg

<svg xmlns="http://www.w3.org/2000/svg" viewBox="0 0 512 512"><path d="M116 347q11 0 17.5 6t6.5 17v117q0 11-6.5 17t-17.5 6H23q-23 0-23-23V370q0-23 23-23h93zm373-186q23 0 23 23v303q0 23-23 23h-93q-11 0-17.5-6t-6.5-17V184q0-11 6.5-17t17.5-6h93zM93 231q-9 0-16-7-8-8-8-17t8-16l93-93q7-7 16-7t16 7l54 54L363 45h-37q-11 0-17-6.5T303 21q0-23 23-23h97.5l4.5 2q9 6 12 12 2 2 2 4.5V114q0 11-6 17.5t-17 6.5-17-6.5-6-17.5V77L272 200q-7 8-16 8t-16-8l-54-53-77 77q-7 7-16 7zm210 23q23 0 23 23v210q0 23-23 23h-94q-23 0-23-23V277q0-23 23-23h94z"/></svg>

<?xml version="1.0" encoding="UTF-8" standalone="no"?><svg   xmlns:svg="http://www.w3.org/2000/svg"   xmlns="http://www.w3.org/2000/svg"   version="1.1"   width="512"   height="512"   viewBox="0 0 512 512">  <path     d="M116 347Q127 347 133.5 353T140 370V487Q140 498 133.5 504T116 510H23Q0 510 0 487V370Q0 347 23 347H116zM489 161Q512 161 512 184V487Q512 510 489 510H396Q385 510 378.5 504T372 487V184Q372 173 378.5 167T396 161H489zM93 231Q84 231 77 224Q69 216 69 207T77 191L170 98Q177 91 186 91T202 98L256 152L363 45H326Q315 45 309 38.5T303 21Q303 -2 326 -2H419H423.5T428 0Q437 6 440 12Q442 14 442 16.5V21V114Q442 125 436 131.5T419 138T402 131.5T396 114V77L272 200Q265 208 256 208T240 200L186 147L109 224Q102 231 93 231zM303 254Q326 254 326 277V487Q326 510 303 510H209Q186 510 186 487V277Q186 254 209 254H303z"     id="team-graph" /></svg>
